X:1
T:Cuenca, 87.87 D
T:Cuenca, 87.87 D
T:Barney Elliott Warren, 1893
T:Public Domain Courtesy of the Cyber Hymnal™
C:Barney Elliott Warren, 1893
Z:Public Domain
Z:Courtesy of the Cyber Hymnal™
%%score ( 1 2 ) ( 3 4 )
L:1/8
Q:1/4=115
M:9/8
K:Ab
V:1 treble 
V:2 treble 
V:3 bass 
V:4 bass 
V:1
 ([CE][DF])[DG] | [CA]3 [CA]3 ([Ec][DB])[CA] | [DB]3 [DB]3 (EG)[EA] | [EB]3 [EB]3 (dc)[EB] | %4
 [Ec]3- [Ec]2 z | (E[=DF])[_DG] | [CA]3 [EA]3 cB[EA] | [EB]3 [EB]3 (EG)[EA] | %8
 [EB]3 [Ae]3 (dc)[EB] | [EA]6 ([CA][DB])[Ec] | [Fd]3 [Fd]3 ([Af][_Ge])[Fd] | [Ec]3 [Ec]3 cBA | %12
 [GB]3 [Ee]3 =dc[Ad] | e6 (E[=DF])[_DG] | [CA]3 [EA]3 (cB)[FA] | [GB]3 [GB]3 (EG)[EA] | %16
 [GB]3 [Ae]3 (dc)[EB] | [EA]6 |] %18
V:2
 x3 | x9 | x6 E2 x | x6 E2 x | x6 | E x2 | x6 E2 x | x6 E2 x | x6 E2 x | x9 | x9 | x6 E2 A | %12
 x6 A2 x | (G2 .A B3) E2 x | x6 E2 x | x6 E2 x | x6 E2 x | x6 |] %18
V:3
 [A,,A,]2 [A,,A,] | [A,,E,]3 [A,,E,]3 _A,2 [F,A,] | [E,G,]3 [E,G,]3 (G,B,)[E,C] | %3
 [E,D]3 [E,D]3 (B,A,)[E,G,] | A,3- A,2 z | (G,A,)[E,B,] | [A,,A,]3 [A,,C]3 ED[A,,C] | %7
 [E,D]3 [E,D]3 (G,B,)[E,C] | [E,D]3 [E,C]3 (B,E)[E,D] | [A,,C]6 [A,,A,]2 [A,,A,] | %10
 [D,A,]3 [D,A,]3 [D,D]2 [D,A,] | A,3 A,3 A,[G,B,][F,C] | [E,E]3 [A,C]3 B,2 B, | %13
 (B,2 .C D3) (G,A,)[E,B,] | [A,,A,]3 [A,,C]3 ([A,E][G,D])[F,C] | [E,D]3 [E,D]3 (G,B,)[E,C] | %16
 [E,D]3 [E,C]3 (B,E)[E,D] | [A,,A,C]6 |] %18
V:4
 x3 | x6 (_A,G,) x | x6 E,2 x | x6 E,2 x | A,3- A,2 x | E,2 x | x6 A,,3 | x6 E,2 x | x6 E,2 x | %9
 x9 | x9 | A,3 A,3 A, x2 | x6 B,2 B, | E,6 E,2 x | x9 | x6 E,2 x | x6 E,2 x | x6 |] %18

